icons/svg/kodi.svg

﻿<?xml version="1.0" encoding="utf-8"?>
<!DOCTYPE svg PUBLIC "-//W3C//DTD SVG 1.1//EN" "http://www.w3.org/Graphics/SVG/1.1/DTD/svg11.dtd">
<svg xmlns="http://www.w3.org/2000/svg" xmlns:xlink="http://www.w3.org/1999/xlink" version="1.1" baseProfile="full" width="24" height="24" viewBox="0 0 24.00 24.00" enable-background="new 0 0 24.00 24.00" xml:space="preserve">
	<path fill="#000000" fill-opacity="1" stroke-width="1.33333" stroke-linejoin="miter" d="M 12.0313,1C 11.8248,1 11.6049,1.1131 11.4063,1.3125C 10.5611,2.1613 9.71988,2.9948 8.875,3.8438C 8.66148,4.0586 8.60279,4.1773 8.375,4.375C 8.09156,4.6209 7.96344,4.9088 7.96875,5.2813C 7.98773,6.5683 8,7.8377 8,9.125C 8,10.4627 7.99835,11.8187 8,13.1563C 8,13.2565 8.00637,13.3417 8.03125,13.4375C 8.11201,13.7473 8.30877,13.8174 8.53125,13.5938C 9.73184,12.3877 10.7995,11.3003 12,10.0938C 13.3594,8.7281 14.7347,7.3662 16.0938,6C 16.4885,5.6033 16.4886,5.1469 16.0938,4.75C 14.9444,3.5956 13.7744,2.4666 12.625,1.3125C 12.4265,1.1132 12.2377,1.0001 12.0313,1 Z M 18.6563,7.6563C 18.4518,7.6564 18.2505,7.7486 18.0625,7.9375C 16.9067,9.0984 15.7491,10.2446 14.5938,11.4063C 14.2014,11.8004 14.2023,12.2317 14.5938,12.625C 15.7425,13.7799 16.8819,14.9392 18.0313,16.0938C 18.4341,16.4986 18.8488,16.4968 19.25,16.0938C 20.3636,14.9751 21.4778,13.8665 22.5938,12.75C 22.7602,12.5835 22.929,12.4187 23,12.1875L 23,11.875C 22.9298,11.6436 22.7603,11.4791 22.5938,11.3125C 21.4712,10.1894 20.3704,9.0625 19.25,7.9375C 19.062,7.7488 18.8607,7.6562 18.6563,7.6563 Z M 4.78125,8.0938C 4.65191,8.0448 4.57605,8.1417 4.5,8.2188C 3.34999,9.3854 2.33681,10.4269 1.1875,11.5938C 0.930239,11.8551 0.929178,12.24 1.1875,12.5C 1.81155,13.1283 2.43809,13.7473 3.0625,14.375C 3.60261,14.9182 4.02121,15.3327 4.5625,15.875C 4.71672,16.0296 4.85898,16.0175 4.9375,15.8125C 4.97759,15.7083 4.99953,15.5809 5,15.4688C 5.00413,14.2876 5,13.3687 5,12.1875C 5,11.0014 5.00118,9.8111 5,8.625C 4.99988,8.5475 4.97983,8.4519 4.96875,8.375C 4.9513,8.2511 4.90469,8.1407 4.78125,8.0938 Z M 12.0938,14.25C 11.8885,14.2507 11.6603,14.3389 11.4688,14.5313C 10.316,15.6888 9.18351,16.8736 8.03125,18.0313C 7.6338,18.4309 7.63286,18.8495 8.03125,19.25C 9.14472,20.3691 10.2638,21.4725 11.375,22.5938C 11.5402,22.7607 11.7083,22.927 11.9375,23L 12.2188,23C 12.4423,22.9366 12.6209,22.7867 12.7813,22.625C 13.9018,21.4941 15.0331,20.3789 16.1563,19.25C 16.5503,18.8542 16.5208,18.398 16.125,18C 14.9729,16.842 13.84,15.6887 12.6875,14.5313C 12.497,14.3398 12.299,14.2494 12.0938,14.25 Z "/>
</svg>

<svg xmlns="http://www.w3.org/2000/svg" version="1.1" baseProfile="full" width="24" height="24" viewBox="0 0 24.00 24.00" xml:space="preserve"><path fill="#000" fill-opacity="1" stroke-width="1.333" stroke-linejoin="miter" d="M12.03 1c-.205 0-.425.113-.624.313-.845.848-1.686 1.682-2.53 2.53-.215.216-.273.334-.5.532-.284.246-.413.534-.407.906C7.987 6.57 8 7.84 8 9.126c0 1.338-.002 2.694 0 4.03 0 .102.006.187.03.283.082.31.28.38.5.156 1.202-1.206 2.27-2.294 3.47-3.5C13.36 8.728 14.735 7.366 16.094 6c.394-.397.395-.853 0-1.25-1.15-1.154-2.32-2.283-3.47-3.438-.197-.2-.386-.312-.593-.312zm6.626 6.656c-.204 0-.405.093-.593.282-1.156 1.16-2.314 2.307-3.47 3.468-.392.394-.39.826 0 1.22 1.15 1.154 2.29 2.313 3.438 3.468.404.405.82.403 1.22 0 1.114-1.12 2.228-2.228 3.344-3.344.166-.166.335-.33.406-.563v-.312c-.07-.23-.24-.396-.406-.563-1.123-1.123-2.224-2.25-3.344-3.374-.188-.19-.39-.282-.594-.282zM4.78 8.094c-.128-.05-.204.048-.28.125-1.15 1.165-2.163 2.207-3.313 3.374-.257.26-.258.646 0 .906.625.628 1.25 1.247 1.875 1.875.54.543.96.958 1.5 1.5.155.155.297.142.375-.063.04-.104.063-.23.063-.343.004-1.182 0-2.1 0-3.283V8.626c0-.078-.02-.173-.03-.25-.02-.124-.065-.234-.19-.28zm7.314 6.156c-.205 0-.434.09-.625.28-1.154 1.16-2.286 2.344-3.44 3.5-.396.4-.397.82 0 1.22 1.115 1.12 2.234 2.223 3.345 3.344.165.167.333.333.563.406h.28c.224-.063.403-.213.563-.375 1.122-1.13 2.253-2.246 3.376-3.375.394-.396.365-.852-.03-1.25-1.153-1.158-2.286-2.31-3.44-3.47-.19-.19-.387-.28-.592-.28z"/></svg>
